packages/components/icon/src/assets/icons/view.svg

<svg width="24" height="24" viewBox="0 0 24 24" fill="none" xmlns="http://www.w3.org/2000/svg">
<path fill-rule="evenodd" clip-rule="evenodd" d="M12.0682 7C13.8905 7 15.5863 7.42665 17.1555 8.27996C18.7247 9.13327 20.001 10.2903 20.9845 11.751C21.1002 11.9101 21.1581 12.1126 21.1581 12.3585C21.1581 12.5754 21.1002 12.7779 20.9845 12.9659C20.001 14.4267 18.7247 15.5837 17.1555 16.437C15.5863 17.2903 13.8905 17.7169 12.0682 17.7169C10.2459 17.7169 8.55011 17.2903 6.98089 16.437C5.41167 15.5837 4.13534 14.4267 3.15186 12.9659C3.05062 12.8068 3 12.6043 3 12.3585C3 12.0981 3.05062 11.8957 3.15186 11.751C4.13534 10.2903 5.41167 9.13327 6.98089 8.27996C8.55011 7.42665 10.2459 7 12.0682 7ZM12.0682 8.06302C11.2872 8.06302 10.5677 8.25465 9.90961 8.63791C9.25155 9.02118 8.73089 9.54184 8.34762 10.1999C7.96436 10.858 7.77273 11.5775 7.77273 12.3585C7.77273 13.1395 7.96436 13.859 8.34762 14.517C8.73089 15.1751 9.25155 15.6958 9.90961 16.079C10.5677 16.4623 11.2872 16.6539 12.0682 16.6539C12.8492 16.6539 13.5687 16.4623 14.2268 16.079C14.8848 15.6958 15.4055 15.1751 15.7887 14.517C16.172 13.859 16.3636 13.1395 16.3636 12.3585C16.3636 11.5775 16.172 10.858 15.7887 10.1999C15.4055 9.54184 14.8848 9.02118 14.2268 8.63791C13.5687 8.25465 12.8492 8.06302 12.0682 8.06302ZM12.0682 10.4494C12.6033 10.4494 13.0553 10.6338 13.4241 11.0026C13.7929 11.3714 13.9773 11.8233 13.9773 12.3585C13.9773 12.8936 13.7929 13.3456 13.4241 13.7144C13.0553 14.0832 12.6033 14.2676 12.0682 14.2676C11.5331 14.2676 11.0811 14.0832 10.7123 13.7144C10.3435 13.3456 10.1591 12.8936 10.1591 12.3585C10.1591 11.8233 10.3435 11.3714 10.7123 11.0026C11.0811 10.6338 11.5331 10.4494 12.0682 10.4494Z" fill="currentColor"/>
</svg>

<svg viewBox="0 0 24 24" fill="none" xmlns="http://www.w3.org/2000/svg"><path fill-rule="evenodd" clip-rule="evenodd" d="M12.068 7c1.822 0 3.518.427 5.088 1.28a10.715 10.715 0 0 1 3.829 3.471c.115.16.173.362.173.607 0 .217-.058.42-.174.608a10.714 10.714 0 0 1-3.829 3.471 10.482 10.482 0 0 1-5.087 1.28c-1.822 0-3.518-.427-5.087-1.28a10.713 10.713 0 0 1-3.83-3.471c-.1-.16-.151-.362-.151-.607 0-.26.05-.463.152-.608A10.714 10.714 0 0 1 6.98 8.28 10.482 10.482 0 0 1 12.068 7Zm0 1.063c-.78 0-1.5.192-2.158.575A4.258 4.258 0 0 0 8.348 10.2a4.213 4.213 0 0 0-.575 2.159c0 .78.191 1.5.575 2.158a4.258 4.258 0 0 0 1.562 1.562 4.213 4.213 0 0 0 2.158.575c.781 0 1.5-.192 2.159-.575a4.257 4.257 0 0 0 1.562-1.562 4.212 4.212 0 0 0 .575-2.159c0-.78-.192-1.5-.575-2.158a4.258 4.258 0 0 0-1.562-1.562 4.213 4.213 0 0 0-2.159-.575Zm0 2.386c.535 0 .987.185 1.356.554.369.368.553.82.553 1.355 0 .536-.184.988-.553 1.356-.369.37-.82.554-1.356.554-.535 0-.987-.185-1.356-.554a1.844 1.844 0 0 1-.553-1.356c0-.535.184-.987.553-1.355.37-.37.821-.554 1.356-.554Z" fill="currentColor"/></svg>
